images/face.svg

<svg width="30" height="30" viewBox="0 0 30 30" fill="none" xmlns="http://www.w3.org/2000/svg">
<path d="M14.6573 0.0102389C23.2105 -0.182414 30.2194 6.80341 29.993 15.4337C29.7865 23.3012 23.3311 30.0849 14.8212 29.999C6.71308 29.9174 0.044193 23.3472 0.00341797 14.999C0.0528685 6.66283 6.68358 0.190742 14.6573 0.0102389Z" fill="#323642"/>
<path fill-rule="evenodd" clip-rule="evenodd" d="M25.5702 16.8343C26.3649 16.2451 26.8473 15.4814 26.751 14.4522C26.6564 13.4429 26.1463 12.6923 25.2224 12.2818C24.2221 11.841 23.2652 11.965 22.4071 12.6662C22.3091 12.7461 22.2493 12.7495 22.1486 12.6836C20.5575 11.6344 18.8042 11.0469 16.9138 10.8551C16.7943 10.8429 16.6749 10.8304 16.5498 10.8173L16.5497 10.8172L16.2475 10.7857C16.499 10.0034 16.7463 9.23347 16.9929 8.46553L17.463 7.00207C17.496 7.00738 17.5268 7.01189 17.5561 7.01617C17.613 7.02449 17.6642 7.03197 17.7146 7.04286C17.9851 7.10102 18.2555 7.15972 18.526 7.21844L18.526 7.21844L18.526 7.21844L18.5261 7.21845L18.5261 7.21846C19.2202 7.36912 19.9146 7.51986 20.6113 7.6616C20.81 7.70239 20.9089 7.77182 20.9653 7.98182C21.2307 8.97459 22.2189 9.60722 23.2166 9.44668C24.5882 9.22539 25.3325 7.74752 24.668 6.56383C24.1362 5.61792 22.4844 5.05212 21.4199 6.29047C21.3158 6.41197 21.2273 6.4406 21.072 6.40676C20.1586 6.20632 19.2443 6.01187 18.3297 5.81737C17.989 5.74493 17.6484 5.67247 17.3077 5.5997C16.7863 5.48775 16.5425 5.63094 16.382 6.14121C16.2312 6.61987 16.0801 7.09842 15.9291 7.57698L15.9291 7.5771L15.929 7.57722C15.6266 8.53538 15.3242 9.49354 15.0234 10.4525C14.9844 10.5774 14.9514 10.6677 14.784 10.6668C13.9372 10.6607 13.1026 10.7805 12.275 10.9558C10.7906 11.2699 9.41033 11.8305 8.15498 12.6871C8.04046 12.7652 7.97019 12.7339 7.86522 12.6853C7.74868 12.6314 7.63292 12.5739 7.51703 12.5163L7.51702 12.5163C7.20586 12.3618 6.89385 12.2068 6.56389 12.1195C4.99882 11.7047 3.14052 12.9769 3.46065 15.0674C3.58644 15.8893 4.07487 16.4837 4.7481 16.935C4.85914 17.0087 4.88343 17.0755 4.86348 17.197C4.67522 18.3278 4.79234 19.4247 5.24867 20.4799C5.8976 21.9804 7.01415 23.0651 8.37013 23.9208C9.91785 24.8979 11.6347 25.3926 13.4349 25.6191C15.0095 25.8161 16.5755 25.7414 18.1223 25.3926C20.3484 24.8901 22.3308 23.9347 23.8568 22.1843C25.0671 20.7958 25.6032 19.1817 25.3542 17.3402C25.3204 17.0946 25.3794 16.9757 25.5702 16.8343ZM20.2756 16.9107C20.279 17.742 19.5329 18.4857 18.694 18.4866C17.8213 18.4875 17.1073 17.7533 17.1064 16.8525C17.1055 16.029 17.8412 15.307 18.6853 15.3044C19.5546 15.3018 20.2721 16.0255 20.2756 16.9107ZM19.0688 21.5013C19.251 21.2905 19.2041 21.0397 19.0367 20.8739C18.8042 20.6431 18.504 20.5789 18.2707 20.7125C18.2184 20.7425 18.1686 20.7766 18.1188 20.8106L18.1188 20.8106L18.1188 20.8106C18.0793 20.8376 18.0398 20.8646 17.9991 20.8895C16.3915 21.8667 14.7119 22.0186 12.9716 21.2948C12.7045 21.1836 12.4534 21.032 12.203 20.8808L12.203 20.8808C12.1192 20.8302 12.0356 20.7797 11.9514 20.7307C11.7015 20.5849 11.3875 20.6361 11.148 20.8783C10.9901 21.0371 10.9702 21.3104 11.1281 21.5343C11.2174 21.6602 11.338 21.7738 11.4647 21.8624C12.5526 22.626 13.7759 22.9445 15.1908 22.961C15.2352 22.9577 15.2878 22.9543 15.3463 22.9504C15.4899 22.9409 15.6687 22.9291 15.8476 22.9124C16.7273 22.8317 17.5662 22.6 18.3253 22.1435C18.6021 21.9752 18.8554 21.7461 19.0688 21.5013ZM13.0922 16.9072C13.0957 17.7108 12.3401 18.4849 11.5515 18.4866C10.657 18.4883 9.91351 17.7689 9.91091 16.8994C9.90917 16.0394 10.637 15.3052 11.4916 15.3052C12.3574 15.3044 13.0888 16.0359 13.0922 16.9072Z" fill="white"/>
</svg>

<svg width="30" height="30" fill="none" xmlns="http://www.w3.org/2000/svg"><path d="M14.657.01C23.21-.182 30.22 6.803 29.993 15.434c-.206 7.867-6.662 14.65-15.172 14.565-8.108-.082-14.777-6.652-14.818-15C.053 6.663 6.683.191 14.657.01Z" fill="#323642"/><path fill-rule="evenodd" clip-rule="evenodd" d="M25.57 16.834c.795-.589 1.277-1.353 1.181-2.382-.095-1.01-.605-1.76-1.529-2.17-1-.441-1.957-.317-2.815.384-.098.08-.158.083-.258.018-1.591-1.05-3.345-1.637-5.235-1.829l-.364-.038-.303-.031.746-2.32.47-1.464.093.014c.057.008.108.016.159.027l.811.175c.694.151 1.389.302 2.085.444.199.04.298.11.354.32a2.016 2.016 0 0 0 2.252 1.465c1.371-.222 2.116-1.7 1.451-2.883-.532-.946-2.184-1.512-3.248-.274-.104.122-.193.15-.348.117-.913-.2-1.828-.395-2.742-.59L17.308 5.6c-.522-.112-.765.03-.926.541-.15.479-.302.957-.453 1.436-.302.958-.605 1.917-.906 2.876-.039.124-.072.215-.239.214-.847-.006-1.681.114-2.509.289-1.484.314-2.865.875-4.12 1.731-.115.078-.185.047-.29-.002a13.823 13.823 0 0 1-.348-.169c-.311-.154-.623-.31-.953-.396-1.565-.415-3.423.857-3.103 2.947.125.822.614 1.417 1.287 1.868.111.074.135.14.115.262-.188 1.13-.07 2.228.386 3.283.649 1.5 1.765 2.585 3.121 3.44 1.548.978 3.265 1.473 5.065 1.7 1.574.196 3.14.121 4.687-.227 2.226-.503 4.209-1.458 5.735-3.209 1.21-1.388 1.746-3.002 1.497-4.844-.034-.245.025-.364.216-.506Zm-5.294.077c.003.831-.743 1.575-1.582 1.576-.873 0-1.587-.734-1.588-1.634 0-.824.735-1.546 1.58-1.549.869-.002 1.586.722 1.59 1.607Zm-1.207 4.59c.182-.21.135-.461-.032-.627-.233-.23-.533-.295-.766-.162-.053.03-.102.065-.152.099-.04.027-.08.054-.12.079-1.607.977-3.287 1.129-5.027.405a5.897 5.897 0 0 1-.769-.414c-.084-.05-.167-.101-.252-.15-.25-.146-.564-.095-.803.147-.158.16-.178.432-.02.656.09.126.21.24.337.328 1.088.764 2.31 1.083 3.726 1.099l.155-.01c.144-.01.323-.022.502-.039.88-.08 1.718-.312 2.477-.768.277-.169.53-.398.744-.643Zm-5.977-4.594c.004.804-.752 1.578-1.54 1.58-.895.001-1.638-.718-1.641-1.588-.002-.86.726-1.594 1.58-1.594.866 0 1.598.73 1.601 1.602Z" fill="#fff"/></svg>
